X:1
T:Sweeter Than All
T:J. Howard Entwisle
T:Sweeter Than All
T:Public Domain
T:Public Domain
C:J. Howard Entwisle
Z:Public Domain
%%score ( 1 2 ) ( 3 4 )
L:1/8
M:6/8
K:Eb
V:1 treble 
V:2 treble 
V:3 bass 
V:4 bass 
V:1
 E2 [EG] [EB]2 [Ec] | [EB]2 [B,G] [B,E]3 | E[EF][EG] [DF]3 | [DF][EG][DA] [EG]3 | %4
w: 1.~Christ will me His|af- ford, Nev-|er to fall, nev-|to fall, While I|
w: 2.~I will fol- low|the way, Hear-|ing Him call, hear-|Him call, Find- ing|
w: 3.~Tho’ a ves- sel|may be, Brok-|en and small, brok-|and small, Yet His|
w: 4.~When I reach the|tal sea, Voic-|es will call, voic-|will call, But my|
 [EG]2 [FA] [GB]2 [Ge] | [Ae]2 [Ac] [GB]3 | [Ac][EA][Ec] [EB]3 | [DB][DA][DF] [B,E]3 || %8
w: find my pre- cious|Lord, Sweet- er|than all, sweet- er|than all. * *|
w: Him, from day to|day, Sweet- er|than all, sweet- er|than all. * *|
w: bless- ings fall on|me, Sweet- er|than all, sweet- er|than all. * *|
w: Sav- ior’s voice will|be Sweet- er|than all, sweet- er|than all. * *|
"^Refrain" [DF][EG][DA] [EG]2 [DF] | [EG][EA][Ec] [EB]3 | [Ec][Ed][Ee] [Ed]2 [Ec] | %11
w: |||
w: |||
w: |||
w: |||
 [EB]2 [EG] [DF]3 | [EG]2 [EG] [DA]2 [DA] | [EB]2 [EB] [Ec]3 | [Ed][Ed][Ec] (EDC) | %15
w: ||||
w: ||||
w: ||||
w: ||||
 [B,B][CA][DF] E3 |] %16
w: |
w: |
w: |
w: |
V:2
 E2 x4 | x6 | E x5 | x6 | x6 | x6 | x6 | x6 || x6 | x6 | x6 | x6 | x6 | x6 | x3 B3 | x3 E3 |] %16
w: aid||er||||||||||||||
w: all||ing||||||||||||||
w: I||en||||||||||||||
w: crys-||es||||||||||||||
V:3
 [E,G,]2 [E,B,] [E,G,]2 [E,A,] | [E,G,]2 [D,G,] [C,G,]3 | [=B,,=A,][B,,A,][B,,A,] [_B,,_A,]3 | %3
w: ~ ~ ~ ~|~ ~ ~|~ ~ ~ ~|
 [B,,A,][B,,G,][B,,F,] (G, B,2) | [E,B,]2 [E,B,] [E,E]2 [E,=B,] | [A,C]2 [A,E] [E,E]3 | %6
w: ~ ~ ~ ~ *|~ ~ ~ ~|~ ~ ~|
 [A,,E][A,,C][A,,A,] [B,,G,]3 | [B,,F,][B,,F,][B,,A,] [E,G,]3 || %8
w: ~ ~ ~ ~|~ ~ ~ Je-|
 [A,B,][G,B,][F,B,] [E,B,]2 [B,,B,] | [E,B,][E,C][E,A,] [E,G,]3 | A,[A,B,][A,C] [A,B,]2 A, | %11
w: sus is now, and ev-|er will be, Sweet-|er than all the world|
 [E,G,]2 [E,B,] [B,,B,]3 | [E,B,]2 [E,B,] [F,B,]2 [F,B,] | [G,_D]2 [G,D] [A,C]3 | %14
w: Since I heard|His lov- ing call,|Sweet- er than|
 [A,,C][A,,B,][A,,A,] [B,,G,]3 | [B,,G,][B,,F,][B,,A,] [E,G,]3 |] %16
w: all, sweet- er than|all. * * *|
V:4
 x6 | x6 | x6 | x3 E,3 | x6 | x6 | x6 | x6 || x6 | x6 | A, x3 A, x | x6 | x6 | x6 | x6 | x6 |] %16
w: |||~|||||||to me,||||||

